svg/badge.svg

<?xml version="1.0" encoding="UTF-8"?>
<svg xmlns="http://www.w3.org/2000/svg" xmlns:xlink="http://www.w3.org/1999/xlink" width="32" height="32" viewBox="0 0 32 32">
<path fill-rule="nonzero" fill="rgb(0%, 0%, 0%)" fill-opacity="1" d="M 28.867188 15.996094 L 30.910156 12 L 27.140625 9.5625 L 26.914062 5.078125 L 22.429688 4.855469 L 19.992188 1.085938 L 15.996094 3.132812 L 12 1.089844 L 9.5625 4.859375 L 5.082031 5.085938 L 4.855469 9.570312 L 1.085938 12.007812 L 3.132812 16.003906 L 1.089844 20 L 4.859375 22.4375 L 5.085938 26.921875 L 9.570312 27.144531 L 12.007812 30.914062 L 16.003906 28.867188 L 20 30.910156 L 22.4375 27.140625 L 26.917969 26.914062 L 27.144531 22.429688 L 30.914062 19.992188 Z M 14.234375 20.839844 L 9.867188 16.476562 L 11.226562 15.117188 L 14.253906 18.144531 L 20.785156 11.816406 L 22.121094 13.195312 Z M 14.234375 20.839844 "/>
</svg>

<svg role="img" viewBox="0 0 32 32" xmlns="http://www.w3.org/2000/svg"><path d="M28.867 15.996 30.91 12l-3.77-2.437-.226-4.485-4.484-.223-2.438-3.77-3.996 2.048L12 1.09 9.563 4.86l-4.481.226-.227 4.484-3.77 2.438 2.048 3.996L1.09 20l3.77 2.438.226 4.484 4.484.223 2.438 3.77 3.996-2.048L20 30.91l2.438-3.77 4.48-.226.227-4.484 3.77-2.438ZM14.234 20.84l-4.367-4.363 1.36-1.36 3.027 3.028 6.531-6.329 1.336 1.38Zm0 0" fill="rgb(0%, 0%, 0%)"/></svg>
